icons/social-linkedin-negative.svg

<svg viewBox="0 0 20 20"><g clip-path="url(#a)"><path fill="#0a090b" d="M18.5 0h-17q-1.3.1-1.5 1.4v17.2q.1 1.3 1.5 1.4h17q1.4-.1 1.5-1.4v-17.2q-.1-1.3-1.5-1.4Zm-12.6 17h-3v-9.5h3zm-1.5-10.8a1.7 1.7 0 1 1 0-3.4 1.7 1.7 0 0 1 0 3.4Zm12.6 10.8h-3v-4.6c0-1.1 0-2.5-1.5-2.5-1.5 0-1.7 1.2-1.7 2.4v4.7h-3v-9.5h2.8v1.3h0c.5-.7 1.4-1.5 2.9-1.5 3 0 3.5 2 3.5 4.5z"/></g><defs><clipPath id="a"><path fill="#fff" d="M0 0h20v20h-20z"/></clipPath></defs></svg>

<svg viewBox="0 0 20 20"><g clip-path="url(#a)"><path fill="#0a090b" d="M18.5 0h-17Q.2.1 0 1.4v17.2q.1 1.3 1.5 1.4h17q1.4-.1 1.5-1.4V1.4Q19.9.1 18.5 0M6 17H3V7.5h3zM4.4 6.2a1.7 1.7 0 1 1 0-3.4 1.7 1.7 0 0 1 0 3.4M17 17h-3v-4.6c0-1.1 0-2.5-1.5-2.5s-1.7 1.2-1.7 2.4V17h-3V7.5h2.8v1.3c.5-.7 1.4-1.5 2.9-1.5 3 0 3.5 2 3.5 4.5z"/></g><defs><clipPath id="a"><path fill="#fff" d="M0 0h20v20H0z"/></clipPath></defs></svg>
